X: 17
M:3/4
L:1/8
K:Bb
"moderato"F4 =E2|F2 G2 B2|c4 B2|G4 c2|B4 GF|=E4 C2|C4 C2|C2 D2 =E2|
f4 =e2|f4 g2|f4 _e2|c4 d2|e4 e2|e2 c2 e2|B4 G2|=E4 C2|

